svgs/folder_in_folder.svg

<svg width="192" height="192" viewBox="0 0 192 192" fill="none" xmlns="http://www.w3.org/2000/svg">
<path d="M170 123V52C170 48.6863 167.314 46 164 46H112.365C110.845 46 109.382 45.4233 108.271 44.3863L96.7289 33.6137C95.6179 32.5767 94.1548 32 92.635 32H56C52.6863 32 50 34.6863 50 38V123C50 126.314 52.6863 129 56 129H164C167.314 129 170 126.314 170 123Z" stroke="black" stroke-width="12"/>
<path d="M148 157H34C27.3726 157 22 151.627 22 145V61" stroke="black" stroke-width="12" stroke-linecap="round"/>
</svg>

<svg xmlns="http://www.w3.org/2000/svg" width="192" height="192" fill="none" viewBox="0 0 192 192"><path stroke="#000" stroke-width="12" d="M170 123V52a6 6 0 0 0-6-6h-51.635a6 6 0 0 1-4.094-1.614L96.729 33.614A6 6 0 0 0 92.635 32H56a6 6 0 0 0-6 6v85a6 6 0 0 0 6 6h108a6 6 0 0 0 6-6Z"/><path stroke="#000" stroke-linecap="round" stroke-width="12" d="M148 157H34c-6.627 0-12-5.373-12-12V61"/></svg>
